packages/core/src/svgs/bond.svg

<svg width="24" height="24" viewBox="0 0 24 24" fill="none" xmlns="http://www.w3.org/2000/svg">
<g clip-path="url(#clip0_31_7267)">
<path d="M0 0H24V24H0V0Z" fill="#FF4339"/>
<path d="M8.99993 15.9041L6.41564 17.7469C5.05919 16.3275 4.29711 14.443 4.28564 12.4798V12.3855C4.28621 10.3395 5.09951 8.37759 6.54662 6.93129C7.99373 5.48498 9.95612 4.67277 12.0021 4.67334C14.048 4.67391 16.01 5.48721 17.4563 6.93432C18.9026 8.38143 19.7148 10.3438 19.7142 12.3898V12.4755C19.7064 14.4328 18.9522 16.3135 17.6056 17.7341L14.9999 15.8869V11.9826L15.9514 11.2798L12.0256 8.30977L8.09993 11.2798L8.99993 11.9826V15.9041ZM11.9999 11.1426H12.0642C13.2299 11.1426 14.2071 12.0041 14.1385 13.0969V15.2826L11.9956 13.7826L9.85707 15.3041V13.0969C9.85707 11.9998 10.8299 11.1426 11.9999 11.1426Z" fill="white"/>
</g>
<defs>
<clipPath id="clip0_31_7267">
<rect width="24" height="24" fill="white"/>
</clipPath>
</defs>
</svg>

<svg xmlns="http://www.w3.org/2000/svg" width="24" height="24" fill="none" viewBox="0 0 24 24"><g clip-path="url(#a)"><path fill="#FF4339" d="M0 0h24v24H0z"/><path fill="#fff" d="m9 15.904-2.584 1.843a7.7 7.7 0 0 1-2.13-5.267v-.095a7.714 7.714 0 1 1 15.428.005v.085a7.7 7.7 0 0 1-2.108 5.26L15 15.886v-3.904l.951-.703-3.925-2.97L8.1 11.28l.9.703zm3-4.761h.064c1.166 0 2.143.861 2.075 1.954v2.186l-2.143-1.5-2.139 1.521v-2.207c0-1.097.973-1.954 2.143-1.954"/></g><defs><clipPath id="a"><path fill="#fff" d="M0 0h24v24H0z"/></clipPath></defs></svg>
